app/images/icons/share-twitter.svg

<svg fill="none" height="56" viewBox="0 0 56 56" width="56" xmlns="http://www.w3.org/2000/svg"><circle cx="28" cy="28" fill="#1da1f2" r="28"/><path clip-rule="evenodd" d="m44 20.226-3.0067-1.2886 1.5749-3.4363-3.6653 1.217c-1.1674-1.0882-2.6994-1.701-4.2953-1.7181-3.5551.0079-6.4351 2.8879-6.4429 6.443v1.4317c-5.0685 1.0452-9.4927-1.7181-13.6018-6.4429-.7159 3.818 0 6.6815 2.1476 8.5906l-4.7105-.7159c.3756 3.1298 2.9382 5.5417 6.085 5.7271l-3.9373 1.4317c1.4317 2.8636 4.0375 3.3074 7.5167 3.5794-2.8437 1.9396-6.223 2.9409-9.6644 2.8636 18.2694 8.1181 28.9933-3.8085 28.9933-14.3177v-1.1884z" fill="#fff" fill-rule="evenodd"/></svg>

<svg width="56" height="56" viewBox="0 0 56 56" fill="none" xmlns="http://www.w3.org/2000/svg">
<circle cx="28" cy="28" r="28" fill="#1DA1F2"/>
<path fill-rule="evenodd" clip-rule="evenodd" d="M44 20.226L40.9933 18.9374L42.5682 15.5011L38.9029 16.7181C37.7355 15.6299 36.2035 15.0171 34.6076 15C31.0525 15.0079 28.1725 17.8879 28.1647 21.443V22.8747C23.0962 23.9199 18.672 21.1566 14.5629 16.4318C13.847 20.2498 14.5629 23.1133 16.7105 25.0224L12 24.3065C12.3756 27.4363 14.9382 29.8482 18.085 30.0336L14.1477 31.4653C15.5794 34.3289 18.1852 34.7727 21.6644 35.0447C18.8207 36.9843 15.4414 37.9856 12 37.9083C30.2694 46.0264 40.9933 34.0998 40.9933 23.5906V22.4022L44 20.226Z" fill="white"/>
</svg>
